X:1
T:To the Work
T:To the Work
T:William Howard Doane, 1871
T:Frances Jane (Fanny) Crosby, 1869
T:Public Domain Courtesy of the Cyber Hymnal™
T:Public Domain Courtesy of the Cyber Hymnal™
C:William Howard Doane, 1871
Z:Public Domain
Z:Courtesy of the Cyber Hymnal™
%%score ( 1 2 ) ( 3 4 )
L:1/8
Q:1/4=105
M:4/4
K:F
V:1 treble 
V:2 treble 
V:3 bass 
V:4 bass 
V:1
 [FA]>[GB] | [Ac]2 [Ac]>[Ac] [Ac]2 [CF][CG] | [FA]2 [FA]>[FA] [FA]2 [EG][FA] | [GB]2 [GB]>[_GA] | %4
w: 1.~To the|work! To the work! We are|ser- vants of God; Let us|fol- low the|
w: 2.~To the|work! To the work! Let the|hung- ry be fed; To the|fount- ain of|
w: 3.~To the|work! To the work! There is|la- bor for all; For the|king- dom of|
w: 4.~To the|work! To the work! In the|strength of the Lord, And a|robe and a|
 [GB]2 [_GA][=GB] | [Bd]2 [Ac]>[_A=B] [=Ac]2 [FA]>[G_B] | [Ac]2 [Ac]>[Ac] [Ac]2 [CF][CG] | %7
w: path that our|Mas- ter has trod; With the|balm of His coun- sel our|
w: life let the|wear- y be led; In the|cross and its ban- ner our|
w: dark- ness and|er- ror shall fall; And the|love of our Fa- ther ex-|
w: crown shall our|la- bor re- ward, When the|home of the faith- ful our|
 [FA]2 [FA]>[FA] [FA]2 [FA][FA] | G2 [Gc]>[Gc] [G=B]2 [Gc][Gd] | [Ge]2 [Ge]>[Fd] [Ec]2 || %10
w: strength to re- new, Let us|do with our might what our|hands find to do.|
w: glor- y shall be, While we|her- ald the tid- ings, “Sal-|va- tion is free!”|
w: alt- ed shall be, In the|loud swell- ing chor- us, “Sal-|va- tion is free!”|
w: dwell- ing shall be, And we|shout with the ran- somed, “Sal-|va- tion is free!”|
"^Refrain" [FA]>[GB] | [Ac]6 [Af]>[FA] | [EG]6 [EG]>[FA] | [GB]6 [Ec]>[GB] | [FA]6 [FA]>[FB] | %15
w: |||||
w: Toil- ing|on, toil- ing|on, Toil- ing|on, toil- ing|on, Let us|
w: |||||
w: |||||
 c6 [Af]>[Fe] | d6 [Ge]2 | [Ff][Fc] [Fd]>[GB] [FA]2 [EG]2 | [CF]6 |] %19
w: ||||
w: hope and trust,|Let us|watch and pray, And la- bor|till|
w: ||||
w: ||||
V:2
 x2 | x8 | x8 | x4 | x4 | x8 | x8 | x8 | x8 | x6 || x2 | x8 | x8 | x8 | x8 | F2 E2 F2 x2 | %16
 F2 _G2 =G2 x2 | x8 | x6 |] %19
V:3
 [F,C]>[F,C] | [F,C]2 [F,C]>[F,C] [F,C]2 [F,A,][F,B,] | [F,C]2 [F,C]>[F,C] [F,C]2 [F,C][F,C] | %3
 [C,C]2 [C,C]>[C,C] | [C,C]2 [C,C][C,C] | [F,C]2 [F,C]>[F,C] [F,C]2 [F,C]>[F,C] | %6
 [F,C]2 [F,C]>[F,C] [F,C]2 [F,A,][F,B,] | [F,C]2 [F,C]>[F,C] [F,C]2 [F,C][F,C] | %8
 [E,C]2 [C,E]>[E,E] [G,D]2 [G,E][G,=B,] | [G,C]2 [G,C]>[G,=B,] [C,C]2 || z2 | %11
 z2 ([F,C]>[F,C] [F,C]2) [F,C]>[F,C] | ([C,C]2 [C,C]>[C,C] [C,C]2) z2 | %13
 z2 ([C,C]>[C,C] [C,C]2) [C,C]>[E,C] | ([F,C]2 [F,C]>[F,C] [F,C]2) [F,C]>[G,C] | %15
 [A,C]2 [G,B,]2 [F,A,]2 [F,C]>[A,C] | B,2 [A,C]2 [G,B,]2 x2 | %17
 [A,C][F,A,] [B,,B,]>[B,,D] [C,C]2 [C,B,]2 | [F,A,]6 |] %19
V:4
 x2 | x8 | x8 | x4 | x4 | x8 | x8 | x8 | x8 | x6 || x2 | x8 | x8 | x8 | x8 | x8 | B,2 (CB,) x4 | %17
 x8 | x6 |] %19

